X:141
T:Lucy Farr's
C: Traditional
R: Barndance
M: 4/4
L: 1/8
K: G
(3(DEF) | G4 G4 | GABG E2 D2 | B4 B4 | BcdB A4 |
BcdB G2 G2 | GABG E2 D2 | DEGA BddB |[1 A2 G2 G2 :|[2 A2 G2 G4|]
|: BcdB G2 G2 | GABG E2 D2 | DEGA BddB | B2 A2 A4 |
BcdB G2 G2 | GABG E2 D2 | DEGA BddB |[1 A2 G2 G4 :|[2 A2 G2 G2 |]

